X: 27
T:Highland Laddy - old way. JWDM.26
M:4/4
L:1/4
Q:100
S:J.Winder MS,Wyresdale,Lancs.,1789
R:Reel
O:England
A:Lancashire
Z:vmp.Taz Tarry
K:G
GGB  A/-G/|c2B2|AAc/d/e/c/|AA c/d/e/c/|
GGB A/-G/|!c2B2|GG B/c/d/B/|G2G2:||
:{e-f}g/f/e/d/ e/f/g/e/|d2B2|cAA f/-g/|!aAA e/-f/|
g/f/e/d/ e/f/g/e/|d2B2|GG B/c/d/B/|G2G2:|
